Gruvbox-Plus-Dark/actions/24/layer-delete.svg

<svg width="24" height="24" version="1.1" viewBox="0 0 24 24" xmlns="http://www.w3.org/2000/svg">
  <defs>
    <style type="text/css">.ColorScheme-Text { color:#ebdbb2; } .ColorScheme-Highlight { color:#458588; }</style>
  </defs>
  <path class="ColorScheme-Text" d="m8 5-3 3h9l3-3zm0 4-3 3h9l3-3zm5 5.414 1.586 1.586-1.586 1.586v1.414h1.414l1.586-1.586 1.586 1.586h1.414v-1.414l-1.586-1.586 1.586-1.586v-1.414h-1.414l-1.586 1.586-1.586-1.586h-1.414z" fill="currentColor"/>
</svg>

<svg width="24" height="24" version="1.1" viewBox="0 0 24 24" xmlns="http://www.w3.org/2000/svg">
  <defs>
    <style type="text/css">.ColorScheme-Text { color:#ebdbb2; } .ColorScheme-Highlight { color:#458588; }</style>
  </defs>
  <path class="ColorScheme-Text" d="M 8,5 5,8 h 9 l 3,-3 z m 0,4 -3,3 h 9 L 17,9 Z M 13,14.414 14.586,16 13,17.586 14.414,19 16,17.414 17.586,19 19,17.586 17.414,16 19,14.414 17.586,13 16,14.586 14.414,13 Z" fill="currentColor"/>
</svg>
